X: 1
T: The Bluebell Reel
O: England
S: "via PR"
F: http://home.quicknet.nl/england.abc
Z: 2019 John Chambers <jc:trillian.mit.edu>
M: 2/4
L: 1/8
K: G
D |\
"G"GA B2 | "D7"AB cB/c/ | "G"d>e dB | G2 Bd |\
"Am"c>d cB | "D7"A2 Bc | "G"d>e dB | G |]
DGA |\
"G"B2 AB | "D7"cA Bc | "G"d>e dB | G2 Bd |\
"Am"c>d cB | "D7"A2 Bc | "G"BG "D7"AF | G2 |]
|: Bd |\
"G"g3f | "C"ef ge | "G"d>e dB | G2 Bd |\
"Am"c>d cB | "D7"A2 Bc |1 "G"d>e dB | G2 :|2 "G"BG "D7"AF | "G"G3 |]
